flaticon/productivity-and-development/factory-1.svg

<svg xmlns="http://www.w3.org/2000/svg" width="32" height="32" viewBox="0 0 24 24">
    <path d="M 24 24 L 23.996094 7.6875 L 16.847656 13.351562 L 16.847656 7.675781 L 9.871094 13.300781 L 9.292969 3.632812 L 9.273438 3.632812 L 9.273438 2.253906 C 9.273438 1.011719 8.265625 0 7.023438 0 L 3.808594 0 C 2.566406 0 1.558594 1.011719 1.558594 2.253906 L 1.558594 3.65625 L 0 23.988281 Z M 15.828125 9.808594 L 15.828125 15.460938 L 22.976562 9.796875 L 22.980469 22.972656 L 1.101562 22.972656 L 2.539062 4.1875 L 8.304688 4.1875 L 8.96875 15.339844 Z M 2.578125 2.253906 C 2.578125 1.574219 3.128906 1.019531 3.808594 1.019531 L 7.023438 1.019531 C 7.703125 1.019531 8.253906 1.574219 8.253906 2.253906 L 8.253906 3.167969 L 2.578125 3.167969 Z M 2.578125 2.253906"/>
    <path d="M18.996094 17.03125L20.015625 17.03125 20.015625 19.664062 18.996094 19.664062zM12.285156 17.03125L13.304688 17.03125 13.304688 19.664062 12.285156 19.664062zM12.285156 17.03125"/>
</svg>

<svg xmlns="http://www.w3.org/2000/svg" width="32" height="32" viewBox="0 0 24 24">
    <path d="M24 24l-.004-16.313-7.148 5.665V7.676L9.87 13.3l-.578-9.668h-.02v-1.38A2.254 2.254 0 0 0 7.023 0H3.81a2.254 2.254 0 0 0-2.25 2.254v1.402L0 23.988zM15.828 9.809v5.652l7.149-5.664.003 13.176H1.102L2.539 4.188h5.766l.664 11.152zM2.578 2.254c0-.68.55-1.234 1.23-1.234h3.215c.68 0 1.23.554 1.23 1.234v.914H2.579zm0 0"/>
    <path d="M18.996 17.031h1.02v2.633h-1.02zm0 0M12.285 17.031h1.02v2.633h-1.02zm0 0"/>
</svg>
